!!!COM: Palestrina, Giovanni Perluigi da
!!!OPR: Missa Confitebor tibi
!!!OMD: Gloria
!!!OTL: Qui tollis
**kern	**kern	**kern	**kern	**kern	**kern	**kern	**kern
*Ibass	*Itenor	*Icalto	*Icant	*Ibass	*Itenor	*Icalto	*Icant
!Bassus	!Tenor	!Altus	!Cantus	!Bassus	!Tenor	!Altus	!Cantus
*clefF4	*clefGv2	*clefG2	*clefG2	*clefF4	*clefGv2	*clefG2	*clefG2
*k[b-]	*k[b-]	*k[b-]	*k[b-]	*k[b-]	*k[b-]	*k[b-]	*k[b-]
*G:dor	*G:dor	*G:dor	*G:dor	*G:dor	*G:dor	*G:dor	*G:dor
*M4/2	*M4/2	*M4/2	*M4/2	*M4/2	*M4/2	*M4/2	*M4/2
=62	=62	=62	=62	=62	=62	=62	=62
0r	0r	0d	0r	0r	0r	0r	0r
=63	=63	=63	=63	=63	=63	=63	=63
1r	0r	1.f	0a	0r	0r	0r	0r
[1A	.	.	.	.	.	.	.
.	.	2e	.	.	.	.	.
=64	=64	=64	=64	=64	=64	=64	=64
1A]	0e	1a	1cc	0r	0r	0r	0r
1c	.	2.g	[1cc	.	.	.	.
.	.	4f	.	.	.	.	.
=65	=65	=65	=65	=65	=65	=65	=65
1c	1g	1e	2cc]	0r	0r	0r	0r
.	.	.	2g	.	.	.	.
1G	1g	2d	2b-	.	.	.	.
.	.	[2g	2b-	.	.	.	.
=66	=66	=66	=66	=66	=66	=66	=66
2B-	1d	2g]	2.b-	0r	0r	0r	0r
2B-	.	4f	.	.	.	.	.
.	.	4e	4cc	.	.	.	.
1B-	2f	4d	1dd	.	.	.	.
.	.	4e	.	.	.	.	.
.	2f	4f	.	.	.	.	.
.	.	4g	.	.	.	.	.
=67	=67	=67	=67	=67	=67	=67	=67
1F	1f	1a	2cc	0r	0r	0r	0r
.	.	.	1ff	.	.	.	.
2r	1c	1g	.	.	.	.	.
[2c	.	.	2ee	.	.	.	.
=68	=68	=68	=68	=68	=68	=68	=68
2c]	2r	2r	2cc	0r	0r	0r	0r
2B-	1g	1b-	2dd	.	.	.	.
2G	.	.	2ee	.	.	.	.
2A	2f	2a	[2ff	.	.	.	.
=69	=69	=69	=69	=69	=69	=69	=69
1B-	1d	2f	2ff]	0r	0r	0r	0r
.	.	2g	4ee	.	.	.	.
.	.	.	4dd	.	.	.	.
[1A	2e	1a	2cc#	.	.	.	.
.	2f	.	[2dd	.	.	.	.
=70	=70	=70	=70	=70	=70	=70	=70
1A]	1e	1a	2dd]	0r	0r	0r	1r
.	.	.	2cc#	.	.	.	.
1D	1d	1f	2dd	.	.	.	[1a
.	.	.	2ff	.	.	.	.
=71	=71	=71	=71	=71	=71	=71	=71
1F	2c	2f	1ff	0A	0r	0a	1a]
.	2c	2a	.	.	.	.	.
2F	2A	1f	2ff	.	.	.	1cc
2F	2F	.	2cc	.	.	.	.
=72	=72	=72	=72	=72	=72	=72	=72
2C	2G	1e	2ee	1c	0e	2.g	1cc
2C	4c	.	2ee	.	.	.	.
.	4d	.	.	.	.	4f	.
1C	4e	2c	1gg	1c	.	4e	1g
.	4f	.	.	.	.	4d	.
.	[2g	2e	.	.	.	2c	.
=73	=73	=73	=73	=73	=73	=73	=73
1G	2g]	1d	1gg	0G	1g	4d	2b-
.	.	.	.	.	.	4c	.
.	2d	.	.	.	.	4B-	2b-
.	.	.	.	.	.	4A	.
1r	1r	1r	1r	.	1g	2G	2.b-
.	.	.	.	.	.	2g	.
.	.	.	.	.	.	.	4cc
=74	=74	=74	=74	=74	=74	=74	=74
0r	0r	0r	0r	2B-	1d	2.f	1.dd
.	.	.	.	2B-	.	.	.
.	.	.	.	.	.	4e	.
.	.	.	.	2B-	2f	4d	.
.	.	.	.	.	.	4e	.
.	.	.	.	4A	2f	4f	4cc
.	.	.	.	4G	.	4g	4b-
=75	=75	=75	=75	=75	=75	=75	=75
0r	0r	0r	0r	4F	2f	2a	1.cc
.	.	.	.	4G	.	.	.
.	.	.	.	4A	4e	2a	.
.	.	.	.	4B-	4d	.	.
.	.	.	.	2c	2e	2g	.
.	.	.	.	2d	[2d	2f	2b-
=76	=76	=76	=76	=76	=76	=76	=76
1r	2r	1r	0r	1A	2d]	1e	1a
.	1a	.	.	.	2c#	.	.
2r	.	1a	.	1D	[1d	2.d	2.f
[2d	2a	.	.	.	.	.	.
.	.	.	.	.	.	4e	4g
=77	=77	=77	=77	=77	=77	=77	=77
2d]	2.f	2a	1dd	2r	1d]	4f	1a
.	.	.	.	.	.	4g	.
2d	.	2.f	.	1d	.	4a	.
.	4e	.	.	.	.	8g	.
.	.	.	.	.	.	8a	.
2.B-	1d	.	2dd	.	2r	2b-	2r
.	.	4e	.	.	.	.	.
.	.	2d	[2b-	2d	2d	2f	[2dd
4A	.	.	.	.	.	.	.
=78	=78	=78	=78	=78	=78	=78	=78
1G	2r	1g	4b-]	2.B-	2d	2r	2dd]
.	.	.	4a	.	.	.	.
.	2.G	.	4g	.	2.B-	2d	2dd
.	.	.	4a	4A	.	.	.
2r	.	2g	4b-	[1G	.	2d	2.b-
.	4A	.	4cc	.	4A	.	.
[2G	4B-	4G	2dd	.	[2G	[2B-	.
.	4c	4A	.	.	.	.	4a
=79	=79	=79	=79	=79	=79	=79	=79
2G]	2d	4B-	1.gg	1G]	2G]	4B-]	0g
.	.	4c	.	.	.	4A	.
2G	2B-	2d	.	.	2g	1G	.
[1C	1c	2.e	.	2r	2g	.	.
.	.	.	2gg	[2c	[2e	[2g	.
.	.	4f	.	.	.	.	.
=80	=80	=80	=80	=80	=80	=80	=80
1C]	2r	1g	2.ee	2c]	4e]	2g]	2r
.	.	.	.	.	4d	.	.
.	2c	.	.	2c	2c	2e	1cc
.	.	.	4dd	.	.	.	.
[1F	2c	[1a	1cc	2.A	2r	4f	.
.	.	.	.	.	.	4g	.
.	[2A	.	.	.	[2c	4a	2cc
.	.	.	.	4G	.	4b-	.
=81	=81	=81	=81	=81	=81	=81	=81
2F]	4A]	1a]	2r	0F	2c]	2cc	2.a
.	4G	.	.	.	.	.	.
2F	2F	.	1ff	.	2c	1a	.
.	.	.	.	.	.	.	4g
2.D	2A	2r	.	.	2d	.	1f
.	2A	[2d	2ff	.	[2f	2d	.
4C	.	.	.	.	.	.	.
=82	=82	=82	=82	=82	=82	=82	=82
0BB-	4B-	2d]	2.dd	2.B-	2f]	1f	2r
.	4c	.	.	.	.	.	.
.	4d	2B-	.	.	1d	.	1b-
.	4e	.	4cc	4B-	.	.	.
.	2f	2.d	1b-	2B-	.	1f	.
.	2d	.	.	2B-	[2B-	.	2b-
.	.	4c	.	.	.	.	.
=83	=83	=83	=83	=83	=83	=83	=83
2.E-	0e-	2B-	2r	1G	2B-]	2.g	1b-
.	.	2G	2.ee-	.	2B-	.	.
4E-	.	.	.	.	.	4a	.
2E-	.	[1g	.	1G	1B-	2b-	2g
.	.	.	4ee-	.	.	.	.
2E-	.	.	2ee-	.	.	2g	[2gg
=84	=84	=84	=84	=84	=84	=84	=84
1C	2.e-	2g]	2ee-	0c	2c	1g	2gg]
.	.	2g	1cc	.	2.e-	.	2gg
.	4d	.	.	.	.	.	.
1C	4c	[1g	.	.	.	1cc	1ee-
.	4B-	.	.	.	4d	.	.
.	2c	.	[2gg	.	[2c	.	.
=85	=85	=85	=85	=85	=85	=85	=85
0G	0d	1g]	4gg]	0G	2c]	2r	0dd
.	.	.	8ff	.	.	.	.
.	.	.	8ee	.	.	.	.
.	.	.	2dd	.	4B	2.g	.
.	.	.	.	.	4A	.	.
.	.	2d	1gg	.	1B	.	.
.	.	.	.	.	.	8f	.
.	.	.	.	.	.	8e	.
.	.	[2g	.	.	.	2d	.
=86	=86	=86	=86	=86	=86	=86	=86
0C	0c	4g]	0ee	2r	2c	2e	2r
.	.	4f	.	.	.	.	.
.	.	4e	.	2c	2e	2g	2cc
.	.	4d	.	.	.	.	.
.	.	2e	.	1c	1e	1g	1cc
.	.	2c	.	.	.	.	.
=87	=87	=87	=87	=87	=87	=87	=87
1r	1r	1r	1r	2G	2d	2g	2b
.	.	.	.	2c	2e	2g	2cc
2r	2r	2r	2r	2.F	2.f	1cc	2.a
2F	2c	2a	2ff	.	.	.	.
.	.	.	.	4F	4f	.	4a
=88	=88	=88	=88	=88	=88	=88	=88
1F	1c	1a	1ff	1A	2c	2a	0cc
.	.	.	.	.	1c	2f	.
2C	2c	2g	2ee	1c	.	2g	.
2F	2A	2a	[2ff	.	2F	4f	.
.	.	.	.	.	.	4e	.
=89	=89	=89	=89	=89	=89	=89	=89
2.BB-	2.B-	2.f	2ff]	2.B-	0f	1d	1dd
.	.	.	2.dd	.	.	.	.
4BB-	4B-	4f	.	8A	.	.	.
.	.	.	.	8G	.	.	.
1D	2A	4d	.	[1F	.	[1a	[1ff
.	.	4e	4dd	.	.	.	.
.	[2a	4f	2dd	.	.	.	.
.	.	4g	.	.	.	.	.
=90	=90	=90	=90	=90	=90	=90	=90
1F	4a]	4a	0cc	1F]	1f	1a]	1ff]
.	4g	4b-	.	.	.	.	.
.	1f	2a	.	.	.	.	.
1C	.	1g	.	2r	1r	1r	2r
.	2e	.	.	[2c	.	.	[2gg
=91	=91	=91	=91	=91	=91	=91	=91
1G	1d	1g	1dd	2c]	1.g	1r	2gg]
.	.	.	.	2B	.	.	2dd
1r	1r	1r	1r	1c	.	2r	1ee
.	.	.	.	.	2e	[2cc	.
=92	=92	=92	=92	=92	=92	=92	=92
0r	0r	0r	0r	1G	2.g	2cc]	2dd
.	.	.	.	.	.	2b	2.gg
.	.	.	.	.	4f	.	.
.	.	.	.	2.c	4e	2cc	.
.	.	.	.	.	4d	.	4ff
.	.	.	.	.	[2c	2g	4ee
.	.	.	.	4B-	.	.	4dd
=93	=93	=93	=93	=93	=93	=93	=93
1r	1r	1r	0r	4A	2c]	2.a	4cc
.	.	.	.	4G	.	.	4b-
.	.	.	.	1F	2d	.	1a
.	.	.	.	.	.	4g	.
2r	2r	2r	.	.	2c	4f	.
.	.	.	.	.	.	4e	.
[2G	[2d	2g	.	2G	2B-	2d	2g
=94	=94	=94	=94	=94	=94	=94	=94
2G]	2d]	1a	2r	1D	1A	0d	0dd
2F#	2d	.	1dd	.	.	.	.
1G	2d	1b	.	1G	1G	.	.
.	[2g	.	2dd	.	.	.	.
=95	=95	=95	=95	=95	=95	=95	=95
1C	4g]	2.cc	1ee	0r	0r	0r	0r
.	4f	.	.	.	.	.	.
.	4e	.	.	.	.	.	.
.	4d	4b-	.	.	.	.	.
2.F	4c	4a	2ff	.	.	.	.
.	4B-	4g	.	.	.	.	.
.	4A	2f	[2ff	.	.	.	.
4E	4G	.	.	.	.	.	.
=96	=96	=96	=96	=96	=96	=96	=96
4D	2F	2a	4ff]	0r	0r	0r	0r
4C	.	.	4ee	.	.	.	.
1BB-	2.f	1b-	4dd	.	.	.	.
.	.	.	4cc	.	.	.	.
.	.	.	2dd	.	.	.	.
.	4d	.	.	.	.	.	.
2C	2e-	[2a	2cc	.	.	.	.
=97	=97	=97	=97	=97	=97	=97	=97
0D	0d	2a]	1b-	1r	1r	1r	1r
.	.	1g	.	.	.	.	.
.	.	.	1a	2r	2r	2r	2r
.	.	2f#	.	[2D	[2d	[2a	[2dd
=98	=98	=98	=98	=98	=98	=98	=98
0r	0r	0r	0r	2D]	2d]	2a]	2dd]
.	.	.	.	2G	2d	2g	2b-
.	.	.	.	2.F	[1f	2.a	2cc
.	.	.	.	.	.	.	4f
.	.	.	.	4E	.	4g	4g
=99	=99	=99	=99	=99	=99	=99	=99
0r	0r	0r	0r	2D	2f]	2f	4a
.	.	.	.	.	.	.	4b-
.	.	.	.	2C	2g	2e	2cc
.	.	.	.	2F	2a	4f	2cc
.	.	.	.	.	.	4c	.
.	.	.	.	2G	2g	[2e	2b-
=100	=100	=100	=100	=100	=100	=100	=100
1r	1r	1r	1r	1A	1f	2e]	1a
.	.	.	.	.	.	1d	.
2r	2r	2r	2r	1A	1e	.	1a
[2A	[2e	[2a	[2cc#	.	.	2c#	.
=101	=101	=101	=101	=101	=101	=101	=101
2A]	2e]	2a]	2cc#]	0r	0r	0r	0r
2d	2f	2a	2dd	.	.	.	.
2.c	2g	[1cc	[1ee	.	.	.	.
.	2g	.	.	.	.	.	.
4B-	.	.	.	.	.	.	.
=102	=102	=102	=102	=102	=102	=102	=102
2A	1a	2cc]	2ee]	0r	0r	0r	0r
2F	.	2cc	2ff	.	.	.	.
2B-	2d	2b-	2ff	.	.	.	.
2c	[2g	2g	2ee	.	.	.	.
=103	=103	=103	=103	=103	=103	=103	=103
1d	4g]	2b-	1dd	2r	2r	2r	2r
.	4f	.	.	.	.	.	.
.	1f	2a	.	2d	2a	2d	2ff
1D	.	1a	1dd	2d	2.a	2.f	2ff
.	2d	.	.	[2d	.	.	[2ff
.	.	.	.	.	4g	4g	.
=104	=104	=104	=104	=104	=104	=104	=104
0r	0r	0r	1r	4d]	2f	2a	4ff]
.	.	.	.	4c	.	.	4ee
.	.	.	.	2B-	2g	2b-	2dd
.	.	.	2r	2c	2e	2a	2cc
.	.	.	2dd	2d	2f#	2a	2a
=105	=105	=105	=105	=105	=105	=105	=105
2r	2r	2r	2dd	0G	2.g	0g	2.b-
2G	1g	2b-	2.dd	.	.	.	.
.	.	.	.	.	8f	.	4cc
.	.	.	.	.	8e	.	.
2G	.	2b-	.	.	1d	.	1dd
.	.	.	4cc	.	.	.	.
[2G	[2d	[2b-	2b-	.	.	.	.
=106	=106	=106	=106	=106	=106	=106	=106
4G]	2d]	4b-]	2dd	0r	1r	1r	1r
4F	.	4a	.	.	.	.	.
2E	2e	2g	1cc	.	.	.	.
2F	2d	2a	.	.	2r	2r	2r
2G	2d	2g	2b	.	2G	2d	2gg
=107	=107	=107	=107	=107	=107	=107	=107
0C	0c	0g	0cc	2r	4c	4e	2gg
.	.	.	.	.	4d	4d	.
.	.	.	.	2c	4e	4c	2.gg
.	.	.	.	.	4f	4d	.
.	.	.	.	1c	1g	4e	.
.	.	.	.	.	.	4f	4ff
.	.	.	.	.	.	2g	2ee
=108	=108	=108	=108	=108	=108	=108	=108
0r	0r	0r	1r	2c	2e	2c	2gg
.	.	.	.	2A	2a	2cc	1ff
.	.	.	2r	2B-	2g	2b-	.
.	.	.	2cc	2c	2g	2g	2ee
=109	=109	=109	=109	=109	=109	=109	=109
2r	2r	2r	2cc	0F	0f	0a	0ff
2F	2f	2a	2.cc	.	.	.	.
1F	1f	1a	.	.	.	.	.
.	.	.	4b-	.	.	.	.
.	.	.	2a	.	.	.	.
=110	=110	=110	=110	=110	=110	=110	=110
2F	2c	2a	2cc	0r	0r	0r	0r
2D	2d	2f	1b-	.	.	.	.
2E	2c	2g	.	.	.	.	.
2F	2c	2f	2a	.	.	.	.
=111	=111	=111	=111	=111	=111	=111	=111
0BB-	0B-	2.f	4b-	0B-	0f	0b-	0dd
.	.	.	4cc	.	.	.	.
.	.	.	4dd	.	.	.	.
.	.	4e	4ee	.	.	.	.
.	.	2d	[1ff	.	.	.	.
.	.	[2f	.	.	.	.	.
=112	=112	=112	=112	=112	=112	=112	=112
0F	2r	4f]	1ff]	0F	0f	0a	0cc
.	.	4g	.	.	.	.	.
.	4F	4a	.	.	.	.	.
.	4G	4b-	.	.	.	.	.
.	4A	2cc	1ff	.	.	.	.
.	4B-	.	.	.	.	.	.
.	[2c	4c	.	.	.	.	.
.	.	4d	.	.	.	.	.
=113	=113	=113	=113	=113	=113	=113	=113
0C	4c]	4e	0ee	0c	1g	0g	0cc
.	4d	4f	.	.	.	.	.
.	4e	1g	.	.	.	.	.
.	4f	.	.	.	.	.	.
.	[1g	.	.	.	1e	.	.
.	.	[2cc	.	.	.	.	.
=114	=114	=114	=114	=114	=114	=114	=114
0G	2g]	2cc]	0gg	0G	0d	0g	0dd
.	2d	4b-	.	.	.	.	.
.	.	4a	.	.	.	.	.
.	4d	1b-	.	.	.	.	.
.	4c	.	.	.	.	.	.
.	4d	.	.	.	.	.	.
.	4e	.	.	.	.	.	.
=115	=115	=115	=115	=115	=115	=115	=115
0F	1f	0a	0cc	2r	2r	2r	2r
.	.	.	.	2A	2a	2cc	2cc
.	1f	.	.	2F	2a	2cc	2ff
.	.	.	.	2F	2a	2cc	2ff
=116	=116	=116	=116	=116	=116	=116	=116
0r	0r	0r	0r	2c	2g	2cc	2ee
.	.	.	.	2d	2f	2a	2dd
.	.	.	.	1A	1e	[1a	4cc
.	.	.	.	.	.	.	4b-
.	.	.	.	.	.	.	4a
.	.	.	.	.	.	.	4g
=117	=117	=117	=117	=117	=117	=117	=117
1D	2r	2r	2r	1d	1d	1a]	1f
.	2d	2f	2a	.	.	.	.
2BB-	2f	2b-	2dd	1r	1r	1r	1r
2BB-	2f	2b-	2dd	.	.	.	.
=118	=118	=118	=118	=118	=118	=118	=118
2F	2f	2a	2cc	1r	1r	1r	1r
2G	2d	2g	2b-	.	.	.	.
[1D	4d	4f	4a	2r	2r	2r	2r
.	4e	4e	4g	.	.	.	.
.	4f	4d	4f	2d	2f	2a	2dd
.	4g	4e	4e	.	.	.	.
=119	=119	=119	=119	=119	=119	=119	=119
1D]	1a	4f	1d	2d	2f	2a	2.dd
.	.	4g	.	.	.	.	.
.	.	2a	.	2d	2f	2a	.
.	.	.	.	.	.	.	4dd
1r	1r	1r	1r	[1G	2.g	[1b	2dd
.	.	.	.	.	.	.	[2gg
.	.	.	.	.	8f	.	.
.	.	.	.	.	8e	.	.
=120	=120	=120	=120	=120	=120	=120	=120
0r	0r	0r	0r	1G]	2d	1b]	2gg]
.	.	.	.	.	1g	.	2gg
.	.	.	.	[1c	.	1cc	2ee
.	.	.	.	.	2g	.	2ee
=121	=121	=121	=121	=121	=121	=121	=121
0r	0r	0r	0r	2c]	2e	1cc	4gg
.	.	.	.	.	.	.	4ff
.	.	.	.	2c	1e	.	4ee
.	.	.	.	.	.	.	4dd
.	.	.	.	2A	.	2r	4cc
.	.	.	.	.	.	.	4b-
.	.	.	.	2A	[2f	[2cc	2a
=122	=122	=122	=122	=122	=122	=122	=122
0r	0r	0r	0r	1c	4f]	2cc]	1g
.	.	.	.	.	8e	.	.
.	.	.	.	.	8d	.	.
.	.	.	.	.	2e	2cc	.
.	.	.	.	2.F	1f	2a	2cc
.	.	.	.	.	.	2a	[2dd
.	.	.	.	4G	.	.	.
=123	=123	=123	=123	=123	=123	=123	=123
2r	2r	2r	1a	0A	2.e	1a	2dd]
2A	2e	2a	.	.	.	.	4cc#
.	.	.	.	.	4d	.	4b
2A	2e	2a	2ee	.	1e	1a	1cc#
2A	2e	2a	2ee	.	.	.	.
=124	=124	=124	=124	=124	=124	=124	=124
0D	0d	0a	0ff#	2r	2r	2r	2dd
.	.	.	.	2d	2d	2a	2dd
.	.	.	.	2d	2a	2d	2dd
.	.	.	.	2d	2a	2a	2dd
=125	=125	=125	=125	=125	=125	=125	=125
2r	2r	2r	2r	0G	1g	0b	1dd
2G	2d	2g	2gg	.	.	.	.
2G	2d	2g	2gg	.	1g	.	2r
2G	2d	2g	2gg	.	.	.	[2gg
=126	=126	=126	=126	=126	=126	=126	=126
0C	0e	0g	1ee	1.c	2g	1.cc	2gg]
.	.	.	.	.	1e	.	2gg
.	.	.	[1cc	.	.	.	2ee
.	.	.	.	2c	[2c	2cc	2ee
=127	=127	=127	=127	=127	=127	=127	=127
1.F	0f	1.a	2cc]	2A	2c]	4cc	1cc
.	.	.	.	.	.	4b-	.
.	.	.	2cc	2A	2.F	4a	.
.	.	.	.	.	.	4g	.
.	.	.	2cc	1c	.	1a	1cc
.	.	.	.	.	4G	.	.
2F	.	2a	[2a	.	[2A	.	.
=128	=128	=128	=128	=128	=128	=128	=128
2D	1F	2f	2a]	0F	2A]	2a	0ff
2D	.	2f	1b-	.	2d	2.f	.
1F	2r	1f	.	.	1c	.	.
.	.	.	.	.	.	4g	.
.	2c	.	2a	.	.	2a	.
=129	=129	=129	=129	=129	=129	=129	=129
0BB-	2d	2.f	2b-	0B-	2.B-	1d	0ff
.	2.f	.	2dd	.	.	.	.
.	.	4e	.	.	4c	.	.
.	.	1d	2dd	.	2d	[1b-	.
.	4e	.	.	.	.	.	.
.	4d	.	2dd	.	[2B-	.	.
.	4c	.	.	.	.	.	.
=130	=130	=130	=130	=130	=130	=130	=130
0E-	1.B-	1g	1ee-	0G	2B-]	1b-]	0gg
.	.	.	.	.	1G	.	.
.	.	[1e-	1b-	.	.	[1g	.
.	2G	.	.	.	[2g	.	.
=131	=131	=131	=131	=131	=131	=131	=131
0C	1g	2e-]	0cc	0c	4g]	1g]	0ee-
.	.	.	.	.	4f	.	.
.	.	1c	.	.	4e-	.	.
.	.	.	.	.	4d	.	.
.	2.G	.	.	.	1c	1g	.
.	.	[2G	.	.	.	.	.
.	4A	.	.	.	.	.	.
=132	=132	=132	=132	=132	=132	=132	=132
1G	4B-	4G]	2b-	0G	[0d	2.g	1dd
.	4c	4A	.	.	.	.	.
.	2.d	4B-	4g	.	.	.	.
.	.	4c	4a	.	.	8f	.
.	.	.	.	.	.	8e	.
1G	.	2d	4b-	.	.	2d	1g
.	4c	.	4cc	.	.	.	.
.	2B-	[2d	4dd	.	.	[2g	.
.	.	.	4ee	.	.	.	.
=133	=133	=133	=133	=133	=133	=133	=133
0D	0A	4d]	2ff	0d	1d]	2g]	1a
.	.	4e	.	.	.	.	.
.	.	4f#	2.dd	.	.	4f#	.
.	.	4g	.	.	.	4e	.
.	.	2a	.	.	1d	1f#	1dd
.	.	.	4cc	.	.	.	.
.	.	2d	2a	.	.	.	.
=134	=134	=134	=134	=134	=134	=134	=134
0G	0G	0d	0b	0G	0B	0g	0dd
==	==	==	==	==	==	==	==
*-	*-	*-	*-	*-	*-	*-	*-
!!!CDT: 1525/^1526/-1594/2/2
!!!OCY: Italia
!!!AGN: Mass (Parody)
!!!AST: renaissance, vocal
!!!ASW: Motet 1572 (Palestrina)
!!!PWK: Masses, Book 8vce
!!!RNB: Cadence finals: D,Bb
!!!YOR: Le Opere Complete, v. 30, p. 163
!!!YOO: Rome, Italy: Fratelli Scalera
!!!END: 1992//
!!!EED: John Miller
!!!YEC: Copyright 2000, John Miller
!!!YEN: United States of America
!!!YEM: Rights to all derivative electronic formats reserved.
!!!YEM: Refer to licensing agreement for further details.
!!!YEM: This file must be accompanied by the licensing agreement.
!!!YEM: A copy of the licensing agreement may be found at http://www.music-cog.ohio-state.edu/HumdrumDatabases/Palestrina/license.txt
!!!EMD: converted to Humdrum by Bret Aarden
